packages/opendesign/src/icons/svgs/fill/minus.svg

<?xml version="1.0" encoding="UTF-8"?>
<svg width="24px" height="24px" viewBox="0 0 24 24" version="1.1" xmlns="http://www.w3.org/2000/svg" xmlns:xlink="http://www.w3.org/1999/xlink">
    <title>minus</title>
    <g id="minus" stroke="none" stroke-width="1" fill="none" fill-rule="evenodd">
        <path d="M20,11.3 C20.3865993,11.3 20.7,11.6134007 20.7,12 C20.7,12.3543827 20.4366564,12.6472582 20.0949859,12.6936098 L20,12.7 L4,12.7 C3.61340068,12.7 3.3,12.3865993 3.3,12 C3.3,11.6456173 3.56334362,11.3527418 3.90501415,11.3063902 L4,11.3 L20,11.3 Z" id="path1" fill="#000000" fill-rule="nonzero"></path>
    </g>
</svg>

<!-- Generated by IcoMoon.io -->
<svg version="1.1" xmlns="http://www.w3.org/2000/svg" width="24" height="24" viewBox="0 0 24 24">
<title>minus</title>
<path d="M20 11.3c0.387 0 0.7 0.313 0.7 0.7 0 0.354-0.263 0.647-0.605 0.694l-0.095 0.006h-16c-0.387 0-0.7-0.313-0.7-0.7 0-0.354 0.263-0.647 0.605-0.694l0.095-0.006h16z"></path>
</svg>
